svg/device/print_line.svg

<?xml version="1.0" encoding="UTF-8"?>
<svg width="24px" height="24px" viewBox="0 0 24 24" version="1.1" xmlns="http://www.w3.org/2000/svg" xmlns:xlink="http://www.w3.org/1999/xlink">
    <title>print_line</title>
    <g id="页面-1" stroke="none" stroke-width="1" fill="none" fill-rule="evenodd">
        <g id="Device" transform="translate(-576.000000, 0.000000)" fill-rule="nonzero">
            <g id="print_line" transform="translate(576.000000, 0.000000)">
                 <path d="M24,0 L24,24 L0,24 L0,0 L24,0 Z M12.5934901,23.257841 L12.5819402,23.2595131 L12.5108777,23.2950439 L12.4918791,23.2987469 L12.4918791,23.2987469 L12.4767152,23.2950439 L12.4056548,23.2595131 C12.3958229,23.2563662 12.3870493,23.2590235 12.3821421,23.2649074 L12.3780323,23.275831 L12.360941,23.7031097 L12.3658947,23.7234994 L12.3769048,23.7357139 L12.4804777,23.8096931 L12.4953491,23.8136134 L12.4953491,23.8136134 L12.5071152,23.8096931 L12.6106902,23.7357139 L12.6232938,23.7196733 L12.6232938,23.7196733 L12.6266527,23.7031097 L12.609561,23.275831 C12.6075724,23.2657013 12.6010112,23.2592993 12.5934901,23.257841 L12.5934901,23.257841 Z M12.8583906,23.1452862 L12.8445485,23.1473072 L12.6598443,23.2396597 L12.6498822,23.2499052 L12.6498822,23.2499052 L12.6471943,23.2611114 L12.6650943,23.6906389 L12.6699349,23.7034178 L12.6699349,23.7034178 L12.678386,23.7104931 L12.8793402,23.8032389 C12.8914285,23.8068999 12.9022333,23.8029875 12.9078286,23.7952264 L12.9118235,23.7811639 L12.8776777,23.1665331 C12.8752882,23.1545897 12.8674102,23.1470016 12.8583906,23.1452862 L12.8583906,23.1452862 Z M12.1430473,23.1473072 C12.1332178,23.1423925 12.1221763,23.1452606 12.1156365,23.1525954 L12.1099173,23.1665331 L12.0757714,23.7811639 C12.0751323,23.7926639 12.0828099,23.8018602 12.0926481,23.8045676 L12.108256,23.8032389 L12.3092106,23.7104931 L12.3186497,23.7024347 L12.3186497,23.7024347 L12.3225043,23.6906389 L12.340401,23.2611114 L12.337245,23.2485176 L12.337245,23.2485176 L12.3277531,23.2396597 L12.1430473,23.1473072 Z" id="MingCute" fill-rule="nonzero"></path>
                <path d="M16.9,3 C17.467,3 17.9338222,3.4290048 17.9935452,3.9801417 L18,4.1 L18,7 L19,7 C20.597725,7 21.903664,8.24892392 21.9949075,9.82372764 L22,10 L22,17 C22,18.0543909 21.18415,18.9181678 20.1492661,18.9945144 L20,19 L18,19 L18,20.9 C18,21.467 17.5709778,21.9338222 17.0198548,21.9935452 L16.9,22 L7.1,22 C6.53299067,22 6.06617653,21.5709778 6.00645469,21.0198548 L6,20.9 L6,19 L4,19 C2.94563773,19 2.08183483,18.18415 2.00548573,17.1492661 L2,17 L2,10 C2,8.40232321 3.24892392,7.09633941 4.82372764,7.00509271 L5,7 L6,7 L6,4.1 C6,3.53299067 6.42901351,3.06617653 6.98014344,3.00645469 L7.1,3 L16.9,3 Z M16,16 L8,16 L8,20 L16,20 L16,16 Z M19,9 L5,9 C4.48716857,9 4.06449347,9.38604429 4.0067278,9.88337975 L4,10 L4,17 L6,17 L6,15.1 C6,14.533 6.42901351,14.0661778 6.98014344,14.0064548 L7.1,14 L16.9,14 C17.467,14 17.9338222,14.4290222 17.9935452,14.9801452 L18,15.1 L18,17 L20,17 L20,10 C20,9.44772 19.5523,9 19,9 Z M17,10 C17.5523,10 18,10.4477 18,11 C18,11.51285 17.613973,11.9355092 17.1166239,11.9932725 L17,12 L15,12 C14.4477,12 14,11.5523 14,11 C14,10.48715 14.386027,10.0644908 14.8833761,10.0067275 L15,10 L17,10 Z M16,5 L8,5 L8,7 L16,7 L16,5 Z" id="形状" fill="#09244B"></path>
            </g>
        </g>
    </g>
</svg>

<svg xmlns="http://www.w3.org/2000/svg" width="24" height="24"><g fill="none" fill-rule="nonzero"><path d="M24 0v24H0V0h24ZM12.593 23.258l-.011.002-.071.035-.02.004-.014-.004-.071-.035c-.01-.004-.019-.001-.024.005l-.004.01-.017.428.005.02.01.013.104.074.015.004.012-.004.104-.074.012-.016.004-.017-.017-.427c-.002-.01-.009-.017-.017-.018Zm.265-.113-.013.002-.185.093-.01.01-.003.011.018.43.005.012.008.007.201.093c.012.004.023 0 .029-.008l.004-.014-.034-.614c-.003-.012-.01-.02-.02-.022Zm-.715.002a.023.023 0 0 0-.027.006l-.006.014-.034.614c0 .012.007.02.017.024l.015-.002.201-.093.01-.008.004-.011.017-.43-.003-.012-.01-.01-.184-.092Z"/><path fill="#09244B" d="M16.9 3a1.1 1.1 0 0 1 1.094.98L18 4.1V7h1a3 3 0 0 1 2.995 2.824L22 10v7a2 2 0 0 1-1.85 1.995L20 19h-2v1.9a1.1 1.1 0 0 1-.98 1.094L16.9 22H7.1a1.1 1.1 0 0 1-1.094-.98L6 20.9V19H4a2 2 0 0 1-1.995-1.85L2 17v-7a3 3 0 0 1 2.824-2.995L5 7h1V4.1a1.1 1.1 0 0 1 .98-1.094L7.1 3h9.8ZM16 16H8v4h8v-4Zm3-7H5a1 1 0 0 0-.993.883L4 10v7h2v-1.9a1.1 1.1 0 0 1 .98-1.094L7.1 14h9.8a1.1 1.1 0 0 1 1.094.98l.006.12V17h2v-7a1 1 0 0 0-1-1Zm-2 1a1 1 0 0 1 .117 1.993L17 12h-2a1 1 0 0 1-.117-1.993L15 10h2Zm-1-5H8v2h8V5Z"/></g></svg>
